!!!OTL: AUF D ALMA GEH I AUFE
!!!ARE: Europa, Mitteleuropa, Oesterreich, Tirol
!!!SCT: E1483
!!!YEM: Copyright 1995, estate of Helmut Schaffrath.
**kern
*ICvox
*Ivox
*M2/4
*k[b-e-a-]
*E-:
{8e-
=1
8e-
8g
8b-
8ee-
=2
4b-
8g}
{8b-
=3
8.b-
16a-
8a-
8d
=4
8e-}
{8g
4b-
=5
8b-
8aa-
4ff
=6
8b-
8gg
4ee-}
=7
{8b-
8a-
8f
8a-
=8
4.g}
{8e-
=9
8e-
8g
8b-
8ee-
=10
4b-
8g}
{8b-
=11
8.b-
16a-
8a-
8d
=12
8e-}
{8g
4b-
=13
8b-
8aa-
4ff
=14
8b-
8gg
4ee-}
=15
{8b-
8a-
8f
8a-
=16
4.g}
{8e-
=17
8.e-
16c
8c
8c
=18
8.a-
16a-
8a-}
{8a-
=19
8f
8f
8f
16g
16a-
=20
4b-
8r}
{8e-
=21
8e-
8g
8b-
8ee-
=22
4b-
8g}
{8b-
=23
8.b-
16a-
8a-
8d
=24
8e-}
{8g
4b-
=25
8b-
8aa-
4ff
=26
8b-
8gg
4ee-}
=27
{8b-
8a-
8f
8d
=28
4e-
8r}
==
!!!AGN: Staende -, Hirten -, Alpen - Lied
!!!ONB: ESAC (Essen Associative Code) Database: ERK3
!!!AMT: simple duple
!!!AIN: vox
!!!EED: Helmut Schaffrath
!!!EEV: 1.0
*-
